Simply-Blue-Circles/symbolic/actions/system-shutdown-symbolic.svg

<svg xmlns="http://www.w3.org/2000/svg" width="24" height="24"><path d="M12 1.14A10.86 10.86 0 0 0 1.14 12 10.86 10.86 0 0 0 12 22.86 10.86 10.86 0 0 0 22.86 12 10.86 10.86 0 0 0 12 1.14zm.02 1.82A8.97 8.97 0 0 1 21 11.93a8.97 8.97 0 0 1-8.98 8.97 8.97 8.97 0 0 1-8.97-8.97 8.97 8.97 0 0 1 8.97-8.97zm.01 1.88a11.67 7.19 0 0 0-.98.03v14.31a11.67 7.19 0 0 0 .99.03 11.67 7.19 0 0 0 .96-.03V4.87a11.67 7.19 0 0 0-.96-.03z" fill="gray"/></svg>

<?xml version="1.0" encoding="UTF-8" standalone="no"?>
<svg
   xmlns:dc="http://purl.org/dc/elements/1.1/"
   xmlns:cc="http://creativecommons.org/ns#"
   xmlns:rdf="http://www.w3.org/1999/02/22-rdf-syntax-ns#"
   xmlns:svg="http://www.w3.org/2000/svg"
   xmlns="http://www.w3.org/2000/svg"
   xmlns:sodipodi="http://sodipodi.sourceforge.net/DTD/sodipodi-0.dtd"
   xmlns:inkscape="http://www.inkscape.org/namespaces/inkscape"
   width="24"
   height="24"
   version="1.1"
   id="svg4"
   sodipodi:docname="system-shutdown-symbolic.svg"
   inkscape:version="0.92.4 (5da689c313, 2019-01-14)">
  <metadata
     id="metadata10">
    <rdf:RDF>
      <cc:Work
         rdf:about="">
        <dc:format>image/svg+xml</dc:format>
        <dc:type
           rdf:resource="http://purl.org/dc/dcmitype/StillImage" />
        <dc:title></dc:title>
      </cc:Work>
    </rdf:RDF>
  </metadata>
  <defs
     id="defs8" />
  <sodipodi:namedview
     pagecolor="#ffffff"
     bordercolor="#666666"
     borderopacity="1"
     objecttolerance="10"
     gridtolerance="10"
     guidetolerance="10"
     inkscape:pageopacity="0"
     inkscape:pageshadow="2"
     inkscape:window-width="1085"
     inkscape:window-height="480"
     id="namedview6"
     showgrid="false"
     inkscape:zoom="9.8333333"
     inkscape:cx="1.0677966"
     inkscape:cy="12"
     inkscape:window-x="0"
     inkscape:window-y="25"
     inkscape:window-maximized="0"
     inkscape:current-layer="svg4" />
  <path
     d="M 12,1.14 A 10.86,10.86 0 0 0 1.14,12 10.86,10.86 0 0 0 12,22.86 10.86,10.86 0 0 0 22.86,12 10.86,10.86 0 0 0 12,1.14 Z m 0.02,1.82 A 8.97,8.97 0 0 1 21,11.93 8.97,8.97 0 0 1 12.02,20.9 8.97,8.97 0 0 1 3.05,11.93 8.97,8.97 0 0 1 12.02,2.96 Z m 0.01,1.88 A 11.67,7.19 0 0 0 11.05,4.87 V 19.18 A 11.67,7.19 0 0 0 12.04,19.21 11.67,7.19 0 0 0 13,19.18 V 4.87 A 11.67,7.19 0 0 0 12.04,4.84 Z"
     id="path2"
     inkscape:connector-curvature="0"
     style="fill:#808080" />
</svg>
